packages/tokens/icons/thumbsDownFilled/size32Px.svg

<svg viewBox="0 0 32 32" fill="none" xmlns="http://www.w3.org/2000/svg" width="1em" height="1em"><path fill-rule="evenodd" clip-rule="evenodd" d="M15.0752 8.10554L10.8952 9.35953C10.6282 8.56914 9.88053 8.00011 9 8.00011H5C4.44772 8.00011 4 8.44782 4 9.00011L4 21.0001C4 21.5524 4.44772 22.0001 5 22.0001H9C9.74055 22.0001 10.3871 21.5976 10.7328 20.9995L12.7408 20.9995C12.8258 20.9995 12.9094 21.0211 12.9837 21.0624L16.2286 22.8657C16.7047 23.1303 16.9999 23.6321 16.9999 24.1768L16.9999 24.9299C16.9999 25.7125 17.3957 26.6898 18.3874 26.8906C18.9608 27.0068 19.7288 26.9787 20.3536 26.3538C20.8859 25.8215 21.057 25.025 21.1069 24.3694C21.1584 23.6921 21.0886 23.0426 21.0382 22.6917C21.0039 22.4525 20.9259 22.2332 20.8274 22.0362L20.3091 20.9996H26C27.1045 20.9996 28 20.1042 28 18.9996C28 18.2725 27.6119 17.6359 27.0316 17.2859C27.3239 16.9381 27.5 16.4894 27.5 15.9996C27.5 15.2725 27.1119 14.6359 26.5316 14.2859C26.8239 13.9381 27 13.4894 27 12.9996C27 11.9712 26.2237 11.124 25.2251 11.0121C25.3998 10.7152 25.5 10.3691 25.5 9.99962C25.5 8.89505 24.6045 7.99962 23.5 7.99962H19.5L19.4835 7.99988L19.4777 8.00011H15.7935C15.5502 8.00011 15.3082 8.03563 15.0752 8.10554Z" fill="currentColor"/></svg>

<svg xmlns="http://www.w3.org/2000/svg" fill="none" viewBox="0 0 32 32" width="1em" height="1em"><path fill="currentColor" fill-rule="evenodd" d="m15.075 8.106-4.18 1.254A2 2 0 0 0 9 8H5a1 1 0 0 0-1 1v12a1 1 0 0 0 1 1h4a2 2 0 0 0 1.733-1h2.008a.5.5 0 0 1 .243.062l3.245 1.804a1.5 1.5 0 0 1 .77 1.31v.754c0 .782.397 1.76 1.388 1.96.574.117 1.342.089 1.967-.536.532-.532.703-1.329.753-1.985a8.014 8.014 0 0 0-.069-1.677 2.147 2.147 0 0 0-.21-.656L20.308 21H26a2 2 0 0 0 1.032-3.714 1.999 1.999 0 0 0-.5-3 2 2 0 0 0-1.306-3.274A2 2 0 0 0 23.5 8h-7.708a2.5 2.5 0 0 0-.718.106Z" clip-rule="evenodd"/></svg>
